src/images/react-icon.svg

<svg width="506" height="506" fill="none" xmlns="http://www.w3.org/2000/svg"><path d="M456.382 259.991c0-26.921-33.714-52.433-85.402-68.254 11.928-52.683 6.627-94.596-16.732-108.015-5.384-3.148-11.68-4.64-18.555-4.64v18.473c3.81 0 6.875.745 9.443 2.153 11.265 6.461 16.153 31.063 12.342 62.705-.911 7.787-2.402 15.987-4.224 24.354-16.236-3.976-33.962-7.041-52.6-9.029-11.182-15.325-22.779-29.241-34.458-41.417 27.003-25.099 52.351-38.85 69.58-38.85V79c-22.779 0-52.599 16.235-82.751 44.399-30.151-27.998-59.971-44.068-82.751-44.068v18.472c17.147 0 42.577 13.668 69.581 38.601-11.597 12.176-23.194 26.009-34.211 41.334-18.72 1.988-36.446 5.052-52.682 9.111a249.941 249.941 0 01-4.307-24.021c-3.893-31.643.911-56.244 12.094-62.788 2.485-1.491 5.715-2.154 9.525-2.154V79.414c-6.958 0-13.253 1.491-18.72 4.639-23.276 13.419-28.495 55.25-16.484 107.766C83.548 207.723 50 233.153 50 259.991c0 26.921 33.713 52.434 85.401 68.255-11.928 52.682-6.626 94.596 16.733 108.015 5.384 3.148 11.679 4.639 18.637 4.639 22.78 0 52.6-16.235 82.751-44.399 30.152 27.998 59.972 44.068 82.751 44.068 6.958 0 13.253-1.491 18.72-4.639 23.277-13.419 28.495-55.25 16.484-107.767 51.357-15.821 84.905-41.333 84.905-68.172zm-107.85-55.25c-3.065 10.686-6.875 21.703-11.182 32.72-3.396-6.627-6.958-13.254-10.851-19.88-3.811-6.627-7.87-13.088-11.928-19.383 11.762 1.739 23.11 3.893 33.961 6.543zm-37.938 88.218c-6.461 11.183-13.087 21.785-19.962 31.643-12.343 1.076-24.85 1.656-37.441 1.656-12.508 0-25.016-.58-37.275-1.574-6.875-9.857-13.585-20.377-20.046-31.476-6.295-10.852-12.011-21.868-17.229-32.968 5.135-11.1 10.934-22.199 17.146-33.051 6.461-11.182 13.088-21.785 19.963-31.642 12.342-1.077 24.85-1.657 37.441-1.657 12.508 0 25.016.58 37.275 1.574 6.875 9.857 13.585 20.377 20.046 31.477 6.295 10.851 12.011 21.868 17.229 32.968-5.218 11.099-10.934 22.199-17.147 33.05zm26.756-10.768a355.06 355.06 0 0111.431 32.968c-10.851 2.65-22.282 4.887-34.128 6.626 4.059-6.378 8.118-12.922 11.928-19.631 3.811-6.627 7.373-13.337 10.769-19.963zm-83.993 88.383c-7.704-7.952-15.408-16.815-23.028-26.506 7.455.331 15.075.579 22.779.579 7.786 0 15.49-.165 23.028-.579a323.52 323.52 0 01-22.779 26.506zm-61.629-48.789c-11.762-1.739-23.11-3.893-33.961-6.544 3.064-10.685 6.875-21.702 11.182-32.719 3.396 6.627 6.958 13.254 10.851 19.88a547.508 547.508 0 0011.928 19.383zm61.214-172.376c7.704 7.952 15.407 16.815 23.028 26.506-7.455-.331-15.076-.58-22.779-.58-7.787 0-15.49.166-23.028.58a323.52 323.52 0 0122.779-26.506zm-61.297 48.789c-4.058 6.378-8.117 12.922-11.928 19.631-3.81 6.627-7.372 13.253-10.768 19.88a355.06 355.06 0 01-11.431-32.968 402.406 402.406 0 0134.127-6.543zm-74.964 103.707c-29.323-12.508-48.292-28.909-48.292-41.914 0-13.004 18.969-29.488 48.292-41.913 7.124-3.065 14.91-5.799 22.945-8.367 4.721 16.236 10.934 33.134 18.638 50.446-7.621 17.229-13.751 34.045-18.39 50.197-8.2-2.568-15.986-5.384-23.193-8.449zm44.565 118.369c-11.266-6.461-16.153-31.062-12.343-62.705.911-7.786 2.403-15.986 4.225-24.353 16.235 3.976 33.962 7.041 52.599 9.029 11.183 15.324 22.779 29.24 34.459 41.417-27.004 25.099-52.351 38.849-69.58 38.849-3.728-.083-6.875-.828-9.36-2.237zm196.481-63.119c3.893 31.643-.911 56.244-12.094 62.788-2.485 1.491-5.715 2.154-9.526 2.154-17.146 0-42.576-13.668-69.58-38.601 11.597-12.176 23.193-26.009 34.21-41.334 18.721-1.988 36.447-5.052 52.682-9.111 1.906 8.366 3.397 16.401 4.308 24.104zm31.891-55.25c-7.124 3.065-14.91 5.799-22.945 8.366-4.722-16.235-10.934-33.133-18.638-50.445 7.621-17.23 13.751-34.045 18.389-50.197 8.201 2.567 15.987 5.384 23.277 8.449 29.323 12.507 48.292 28.909 48.292 41.913-.083 13.005-19.052 29.489-48.375 41.914z" fill="#61DAFB"/><path d="M253.108 297.846c20.907 0 37.855-16.948 37.855-37.855 0-20.906-16.948-37.855-37.855-37.855-20.907 0-37.855 16.949-37.855 37.855 0 20.907 16.948 37.855 37.855 37.855z" fill="#61DAFB"/></svg>

<svg width="506" height="506" viewBox="0 0 506 506" fill="none" xmlns="http://www.w3.org/2000/svg">
<path d="M456.382 259.991C456.382 233.07 422.668 207.558 370.98 191.737C382.908 139.054 377.607 97.1406 354.248 83.7215C348.864 80.5738 342.568 79.0828 335.693 79.0828V97.5547C339.503 97.5547 342.568 98.3002 345.136 99.7084C356.401 106.169 361.289 130.771 357.478 162.413C356.567 170.2 355.076 178.4 353.254 186.767C337.018 182.791 319.292 179.726 300.654 177.738C289.472 162.413 277.875 148.497 266.196 136.321C293.199 111.222 318.547 97.4719 335.776 97.4719V79C312.997 79 283.177 95.2354 253.025 123.399C222.874 95.4011 193.054 79.3313 170.274 79.3313V97.8032C187.421 97.8032 212.851 111.471 239.855 136.404C228.258 148.58 216.661 162.413 205.644 177.738C186.924 179.726 169.198 182.79 152.962 186.849C151.057 178.566 149.649 170.531 148.655 162.828C144.762 131.185 149.566 106.584 160.749 100.04C163.234 98.5487 166.464 97.8861 170.274 97.8861V79.4142C163.316 79.4142 157.021 80.9052 151.554 84.0528C128.278 97.4719 123.059 139.303 135.07 191.819C83.5476 207.723 50 233.153 50 259.991C50 286.912 83.7133 312.425 135.401 328.246C123.473 380.928 128.775 422.842 152.134 436.261C157.518 439.409 163.813 440.9 170.771 440.9C193.551 440.9 223.371 424.665 253.522 396.501C283.674 424.499 313.494 440.569 336.273 440.569C343.231 440.569 349.526 439.078 354.993 435.93C378.27 422.511 383.488 380.68 371.477 328.163C422.834 312.342 456.382 286.83 456.382 259.991ZM348.532 204.741C345.467 215.427 341.657 226.444 337.35 237.461C333.954 230.834 330.392 224.207 326.499 217.581C322.688 210.954 318.629 204.493 314.571 198.198C326.333 199.937 337.681 202.091 348.532 204.741ZM310.594 292.959C304.133 304.142 297.507 314.744 290.632 324.602C278.289 325.678 265.782 326.258 253.191 326.258C240.683 326.258 228.175 325.678 215.916 324.684C209.041 314.827 202.331 304.307 195.87 293.208C189.575 282.356 183.859 271.34 178.641 260.24C183.776 249.14 189.575 238.041 195.787 227.189C202.248 216.007 208.875 205.404 215.75 195.547C228.092 194.47 240.6 193.89 253.191 193.89C265.699 193.89 278.207 194.47 290.466 195.464C297.341 205.321 304.051 215.841 310.512 226.941C316.807 237.792 322.523 248.809 327.741 259.909C322.523 271.008 316.807 282.108 310.594 292.959ZM337.35 282.191C341.823 293.291 345.633 304.39 348.781 315.159C337.93 317.809 326.499 320.046 314.653 321.785C318.712 315.407 322.771 308.863 326.581 302.154C330.392 295.527 333.954 288.817 337.35 282.191ZM253.357 370.574C245.653 362.622 237.949 353.759 230.329 344.068C237.784 344.399 245.404 344.647 253.108 344.647C260.894 344.647 268.598 344.482 276.136 344.068C268.681 353.759 260.977 362.622 253.357 370.574ZM191.728 321.785C179.966 320.046 168.618 317.892 157.767 315.241C160.831 304.556 164.642 293.539 168.949 282.522C172.345 289.149 175.907 295.776 179.8 302.402C183.693 309.029 187.669 315.49 191.728 321.785ZM252.942 149.409C260.646 157.361 268.349 166.224 275.97 175.915C268.515 175.584 260.894 175.335 253.191 175.335C245.404 175.335 237.701 175.501 230.163 175.915C237.618 166.224 245.322 157.361 252.942 149.409ZM191.645 198.198C187.587 204.576 183.528 211.12 179.717 217.829C175.907 224.456 172.345 231.082 168.949 237.709C164.476 226.609 160.666 215.51 157.518 204.741C168.369 202.174 179.8 199.937 191.645 198.198ZM116.681 301.905C87.358 289.397 68.3891 272.996 68.3891 259.991C68.3891 246.987 87.358 230.503 116.681 218.078C123.805 215.013 131.591 212.279 139.626 209.711C144.347 225.947 150.56 242.845 158.264 260.157C150.643 277.386 144.513 294.202 139.874 310.354C131.674 307.786 123.888 304.97 116.681 301.905ZM161.246 420.274C149.98 413.813 145.093 389.212 148.903 357.569C149.814 349.783 151.306 341.583 153.128 333.216C169.363 337.192 187.09 340.257 205.727 342.245C216.91 357.569 228.506 371.485 240.186 383.662C213.182 408.761 187.835 422.511 170.606 422.511C166.878 422.428 163.731 421.683 161.246 420.274ZM357.727 357.155C361.62 388.798 356.816 413.399 345.633 419.943C343.148 421.434 339.918 422.097 336.107 422.097C318.961 422.097 293.531 408.429 266.527 383.496C278.124 371.32 289.72 357.487 300.737 342.162C319.458 340.174 337.184 337.11 353.419 333.051C355.325 341.417 356.816 349.452 357.727 357.155ZM389.618 301.905C382.494 304.97 374.708 307.704 366.673 310.271C361.951 294.036 355.739 277.138 348.035 259.826C355.656 242.596 361.786 225.781 366.424 209.629C374.625 212.196 382.411 215.013 389.701 218.078C419.024 230.585 437.993 246.987 437.993 259.991C437.91 272.996 418.941 289.48 389.618 301.905Z" fill="#61DAFB"/>
<path d="M253.108 297.846C274.015 297.846 290.963 280.898 290.963 259.991C290.963 239.085 274.015 222.136 253.108 222.136C232.201 222.136 215.253 239.085 215.253 259.991C215.253 280.898 232.201 297.846 253.108 297.846Z" fill="#61DAFB"/>
</svg>
